X:1
T:Eureka -- Hornpipe
Z:Bob Puckette <bpuckette:msn.com> 2003-3-10
R:hornpipe
B:Cole's 1000 Fiddle Tunes
M:C|
L:1/8
K:Bb
((3ufga)|bfef BdFd|ecAF EFCE|DfdB Ggec|BAcA F2 ((3fga)|
bfdf Bdef|ecAF EFCE|Dgfe dfAc|B2d2B2:|
|:((3ufga)|bgfd BGFD|CEG=B cdef|gecA FECA,|
B,DFB dfbf|gEGB egbg|fDFB dfbF|Ggfe dfAc|B2d2B2:|
